X:199
T:New Feathers THO4.199, The
M:6/8
L:1/8
Z:vmp. Peter Dunk 2010/11.from a transcription by Fynn Titford-Mock 2007
B:Thompson's Compleat Collection of 200 Favourite Country Dances Volume IV.
Q:3/8=110
K:G
D|G2 G G2 g|gfe d3|c2 B A2 G|FGA D3|\
G2 G G2 g|gfe d2 c|BAG DGF|G3G,2:|
|:D|D2 D D2 d|dcB c2 A|D2 D D2 c|cBA B2 A|\
G2 G G2 g|gef d2 c|BAG DGF |G3G,2:|
K:Bb
A|BAB G2 A|BAB G2 A|BAG BAG|A2 D D2 A|\
BAB G2 A|BAB G2 A|BAB G2 d|dcB AG^F|G3G,2:|
